dist/img/analytics/card_4.svg

<svg width="32" height="30" viewBox="0 0 32 30" fill="none" xmlns="http://www.w3.org/2000/svg">
<path d="M22.7198 23.3854L21.8384 22.5349C21.6458 22.3492 21.4162 22.2563 21.1494 22.2563C20.8829 22.2563 20.6534 22.3492 20.4609 22.5349C20.2684 22.7204 20.1721 22.9378 20.1721 23.187C20.1721 23.4363 20.2684 23.6538 20.4609 23.8395L21.9575 25.2834C22.1813 25.4993 22.4381 25.6073 22.728 25.6073C23.0176 25.6073 23.2743 25.4993 23.4981 25.2834L27.1879 21.7872C27.3804 21.6014 27.4793 21.3824 27.4844 21.13C27.4896 20.8779 27.3908 20.6539 27.1879 20.4582C26.9954 20.2725 26.7631 20.1796 26.4912 20.1796C26.2193 20.1796 25.9872 20.2725 25.7949 20.4582L22.7198 23.3854ZM6.09689 8.44578H21.973C22.3202 8.44578 22.611 8.33283 22.8455 8.10694C23.0796 7.88078 23.1966 7.60032 23.1966 7.26555C23.1966 6.92028 23.0796 6.63719 22.8455 6.41629C22.611 6.19538 22.3202 6.08493 21.973 6.08493H6.09689C5.74963 6.08493 5.4588 6.19787 5.2244 6.42376C4.99027 6.64992 4.8732 6.93051 4.8732 7.26555C4.8732 7.60032 4.99027 7.88078 5.2244 8.10694C5.4588 8.33283 5.74963 8.44578 6.09689 8.44578ZM23.8244 30C21.7871 30 20.0541 29.3108 18.6254 27.9323C17.1967 26.5539 16.4823 24.8819 16.4823 22.9163C16.4823 20.9507 17.1967 19.2786 18.6254 17.9002C20.0541 16.5218 21.7871 15.8325 23.8244 15.8325C25.8617 15.8325 27.5947 16.5218 29.0234 17.9002C30.4521 19.2786 31.1665 20.9507 31.1665 22.9163C31.1665 24.8819 30.4521 26.5539 29.0234 27.9323C27.5947 29.3108 25.8617 30 23.8244 30ZM0.166504 2.84569C0.166504 2.06071 0.454614 1.39012 1.03083 0.833913C1.60732 0.277971 2.30238 0 3.11599 0H24.9539C25.7675 0 26.4625 0.277971 27.039 0.833913C27.6152 1.39012 27.9033 2.06071 27.9033 2.84569V11.2612C27.9033 11.5962 27.7861 11.8768 27.5517 12.1029C27.3176 12.3288 27.0269 12.4418 26.6797 12.4418C26.3324 12.4418 26.0417 12.3288 25.8076 12.1029C25.5732 11.8768 25.456 11.5962 25.456 11.2612V2.84569C25.456 2.72448 25.4036 2.6135 25.2989 2.51276C25.1945 2.41175 25.0795 2.36124 24.9539 2.36124H3.11599C2.99036 2.36124 2.87533 2.41175 2.77091 2.51276C2.66622 2.6135 2.61387 2.72448 2.61387 2.84569V24.4782H12.7456C12.7894 24.781 12.85 25.0838 12.9275 25.3865C13.0047 25.689 13.0957 25.9837 13.2004 26.2704C13.3048 26.5084 13.253 26.7 13.045 26.8454C12.8369 26.9907 12.6398 26.9836 12.4535 26.8241L12.19 26.6305C12.0478 26.5135 11.8889 26.455 11.7132 26.455C11.5375 26.455 11.3786 26.5135 11.2364 26.6305L9.86828 27.7383C9.72606 27.8556 9.56698 27.9142 9.39104 27.9142C9.21538 27.9142 9.05643 27.8556 8.91421 27.7383L7.54614 26.6305C7.40392 26.5135 7.24497 26.455 7.06931 26.455C6.89364 26.455 6.7347 26.5135 6.59248 26.6305L5.2244 27.7383C5.08218 27.8556 4.92324 27.9142 4.74757 27.9142C4.5719 27.9142 4.41296 27.8556 4.27074 27.7383L2.90266 26.6305C2.76044 26.5135 2.6015 26.455 2.42583 26.455C2.24989 26.455 2.09082 26.5135 1.9486 26.6305L0.166504 28.1685V2.84569ZM6.09689 20.6758H12.0114C12.3583 20.6758 12.649 20.5629 12.8834 20.337C13.1178 20.1108 13.235 19.8303 13.235 19.4952C13.235 19.1604 13.1178 18.88 12.8834 18.6538C12.649 18.4279 12.3583 18.315 12.0114 18.315H6.09689C5.74963 18.315 5.4588 18.4279 5.2244 18.6538C4.99027 18.88 4.8732 19.1604 4.8732 19.4952C4.8732 19.8303 4.99027 20.1108 5.2244 20.337C5.4588 20.5629 5.74963 20.6758 6.09689 20.6758ZM6.09689 14.561H17.3168C17.6641 14.561 17.9549 14.4479 18.1893 14.2218C18.4235 13.9959 18.5405 13.7154 18.5405 13.3804C18.5405 13.0453 18.4235 12.7649 18.1893 12.539C17.9549 12.3128 17.6641 12.1998 17.3168 12.1998H6.09689C5.74963 12.1998 5.4588 12.3128 5.2244 12.539C4.99027 12.7649 4.8732 13.0453 4.8732 13.3804C4.8732 13.7154 4.99027 13.9959 5.2244 14.2218C5.4588 14.4479 5.74963 14.561 6.09689 14.561Z" fill="#2453E1"/>
</svg>

<svg width="32" height="30" viewBox="0 0 32 30" fill="none" xmlns="http://www.w3.org/2000/svg"><path d="M22.72 23.385l-.882-.85a.958.958 0 00-.689-.279.957.957 0 00-.688.279.878.878 0 000 1.305l1.497 1.443a1.078 1.078 0 001.54 0l3.69-3.496a.911.911 0 00.296-.657c.006-.252-.093-.476-.296-.672a.967.967 0 00-.697-.278.966.966 0 00-.696.278l-3.075 2.927zM6.097 8.445h15.876c.347 0 .638-.112.873-.338.234-.226.35-.507.35-.841 0-.346-.116-.629-.35-.85a1.223 1.223 0 00-.873-.331H6.097a1.21 1.21 0 00-.873.339 1.123 1.123 0 00-.35.842c0 .334.116.615.35.84.235.227.526.34.873.34zM23.824 30c-2.037 0-3.77-.69-5.199-2.068-1.428-1.378-2.143-3.05-2.143-5.016 0-1.965.715-3.637 2.143-5.016 1.43-1.378 3.162-2.067 5.2-2.067 2.037 0 3.77.689 5.198 2.067 1.43 1.379 2.143 3.05 2.143 5.016 0 1.966-.714 3.638-2.143 5.016C27.595 29.311 25.862 30 23.824 30zM.167 2.846c0-.785.288-1.456.864-2.012A2.895 2.895 0 013.116 0h21.838c.813 0 1.508.278 2.085.834.576.556.864 1.227.864 2.012v8.415c0 .335-.117.616-.351.842a1.207 1.207 0 01-.872.339c-.348 0-.638-.113-.872-.34a1.122 1.122 0 01-.352-.84V2.845a.455.455 0 00-.157-.333.487.487 0 00-.345-.152H3.116c-.126 0-.24.05-.345.152a.455.455 0 00-.157.333v21.632h10.132a9.226 9.226 0 00.455 1.792c.104.238.052.43-.156.575-.208.146-.405.139-.591-.02l-.264-.194a.732.732 0 00-.954 0l-1.368 1.107a.731.731 0 01-.954 0L7.546 26.63a.732.732 0 00-.954 0l-1.368 1.107a.73.73 0 01-.953 0L2.903 26.63a.732.732 0 00-.954 0L.167 28.169V2.846zm5.93 17.83h5.914c.347 0 .638-.113.872-.339.235-.226.352-.507.352-.842 0-.335-.117-.615-.352-.841a1.208 1.208 0 00-.872-.339H6.097a1.21 1.21 0 00-.873.339 1.123 1.123 0 00-.35.841c0 .335.116.616.35.842.235.226.526.339.873.339zm0-6.115h11.22c.347 0 .638-.113.872-.34.235-.225.352-.506.352-.84a1.12 1.12 0 00-.352-.842 1.207 1.207 0 00-.872-.34H6.097c-.347 0-.638.114-.873.34a1.122 1.122 0 00-.35.841c0 .335.116.616.35.842.235.226.526.339.873.339z" fill="#2453E1"/></svg>0795 2.36124 24.9539 2.36124H3.11599C2.99036 2.36124 2.87533 2.41175 2.77091 2.51276C2.66622 2.6135 2.61387 2.72448 2.61387 2.84569V24.4782H12.7456C12.7894 24.781 12.85 25.0838 12.9275 25.3865C13.0047 25.689 13.0957 25.9837 13.2004 26.2704C13.3048 26.5084 13.253 26.7 13.045 26.8454C12.8369 26.9907 12.6398 26.9836 12.4535 26.8241L12.19 26.6305C12.0478 26.5135 11.8889 26.455 11.7132 26.455C11.5375 26.455 11.3786 26.5135 11.2364 26.6305L9.86828 27.7383C9.72606 27.8556 9.56698 27.9142 9.39104 27.9142C9.21538 27.9142 9.05643 27.8556 8.91421 27.7383L7.54614 26.6305C7.40392 26.5135 7.24497 26.455 7.06931 26.455C6.89364 26.455 6.7347 26.5135 6.59248 26.6305L5.2244 27.7383C5.08218 27.8556 4.92324 27.9142 4.74757 27.9142C4.5719 27.9142 4.41296 27.8556 4.27074 27.7383L2.90266 26.6305C2.76044 26.5135 2.6015 26.455 2.42583 26.455C2.24989 26.455 2.09082 26.5135 1.9486 26.6305L0.166504 28.1685V2.84569ZM6.09689 20.6758H12.0114C12.3583 20.6758 12.649 20.5629 12.8834 20.337C13.1178 20.1108 13.235 19.8303 13.235 19.4952C13.235 19.1604 13.1178 18.88 12.8834 18.6538C12.649 18.4279 12.3583 18.315 12.0114 18.315H6.09689C5.74963 18.315 5.4588 18.4279 5.2244 18.6538C4.99027 18.88 4.8732 19.1604 4.8732 19.4952C4.8732 19.8303 4.99027 20.1108 5.2244 20.337C5.4588 20.5629 5.74963 20.6758 6.09689 20.6758ZM6.09689 14.561H17.3168C17.6641 14.561 17.9549 14.4479 18.1893 14.2218C18.4235 13.9959 18.5405 13.7154 18.5405 13.3804C18.5405 13.0453 18.4235 12.7649 18.1893 12.539C17.9549 12.3128 17.6641 12.1998 17.3168 12.1998H6.09689C5.74963 12.1998 5.4588 12.3128 5.2244 12.539C4.99027 12.7649 4.8732 13.0453 4.8732 13.3804C4.8732 13.7154 4.99027 13.9959 5.2244 14.2218C5.4588 14.4479 5.74963 14.561 6.09689 14.561Z" fill="#2453E1"/>
</svg>
